X: 32320
T: Pigot, The
R: jig
M: 6/8
K: Dmajor
|:A|ded dcd|eag afd|Bgf ged|cec ABc|
ded dcd|eag afd|dgf edc|d3 D2:|
|:A|AFF GEE|Ddd cee|dff fed|ced cAG|
AFF GEE|Ddd cee|dff fef|gec d2:|
|:A|dfA dfA|ceA ceA|dfA dfa|gfg efg|
ceA cea|ceA ceg|Bgf edc|d3 D2:|
|:A|AFF DFA|dfa gfd|g/a/bg f/g/af|e/f/ge d/e/fd|
AFF DFA|dfa gfe|dff fef|gec d2:|
|:g|fdf dfB|BeA BAB|g3 a3|bag fed|
f/g/ad e/f/gc|d/e/fA B/c/dF|GFG ABc|dAF D2:|

